X:40
T:Deer on the Hill
M:6/8
L:1/8
R:Jig
C:Gris Sanderson
Q:350
N:A version of this tune is on the Waulk albumHouse Music. 
N:When it snows in the Ochils you can see the deer more 
N:clearly as they graze on the hillside.
K:Fmix
||F3-FF_A|B3 B2e|c3-cFc|f3 efg|
_agf e2c|~B3-B2A|c3-c3-|c3z3|
ced Bcg|_a2g f2e|f3-f3-|f3FG_A|
B_AG ABc|ecB ceg|f3-f2e|cBA FEC||
~EFF CEC|EF-F AFE|FEC EB,E|A,EB, ECE|
DE -EG Bd|dee dBd|c2G A2F|EF B,E CE|
DEF DB,D|EB,E DB,D|CFA cAF|EFA FCF|
EGB ~d3-|dee dBd|c2G A2F|EFC- C2E||
